svg/emoji_u1f9b9_1f3fe.svg

<?xml version="1.0" encoding="UTF-8" standalone="no"?>
<svg
   xmlns:dc="http://purl.org/dc/elements/1.1/"
   xmlns:cc="http://creativecommons.org/ns#"
   xmlns:rdf="http://www.w3.org/1999/02/22-rdf-syntax-ns#"
   xmlns:svg="http://www.w3.org/2000/svg"
   xmlns="http://www.w3.org/2000/svg"
   xmlns:sodipodi="http://sodipodi.sourceforge.net/DTD/sodipodi-0.dtd"
   xmlns:inkscape="http://www.inkscape.org/namespaces/inkscape"
   width="128"
   height="128"
   style="enable-background:new 0 0 128 128;"
   version="1.1"
   id="svg2295"
   sodipodi:docname="emoji_u1f9b9.svg"
   inkscape:version="0.92.3 (2405546, 2018-03-11)">
  <metadata
     id="metadata2301">
    <rdf:RDF>
      <cc:Work
         rdf:about="">
        <dc:format>image/svg+xml</dc:format>
        <dc:type
           rdf:resource="http://purl.org/dc/dcmitype/StillImage" />
        <dc:title />
      </cc:Work>
    </rdf:RDF>
  </metadata>
  <defs
     id="defs2299" />
  <sodipodi:namedview
     pagecolor="#ffffff"
     bordercolor="#666666"
     borderopacity="1"
     objecttolerance="10"
     gridtolerance="10"
     guidetolerance="10"
     inkscape:pageopacity="0"
     inkscape:pageshadow="2"
     inkscape:window-width="1920"
     inkscape:window-height="1046"
     id="namedview2297"
     showgrid="false"
     inkscape:zoom="5.2149125"
     inkscape:cx="69.07959"
     inkscape:cy="70.384555"
     inkscape:window-x="-11"
     inkscape:window-y="-11"
     inkscape:window-maximized="1"
     inkscape:current-layer="svg2295"
     inkscape:object-paths="true"
     inkscape:snap-page="true"
     inkscape:snap-bbox="true"
     inkscape:snap-bbox-edge-midpoints="true"
     inkscape:snap-global="true" />
  <path
     inkscape:connector-curvature="0"
     style="fill:#9b643c"
     d="m 64.17,14.87 c -33.11,0 -42.95,23.36 -42.95,58.91 0,35.56 26.86,48.36 42.95,48.36 16.09,0 42.61,-13.14 42.61,-48.69 0,-35.56 -9.5,-58.58 -42.61,-58.58 z"
     id="XMLID_200_" />
  <path
     inkscape:connector-curvature="0"
     style="fill:#513f35"
     d="m 76.38,100.52 c -1.73,0 -12.38,0 -12.38,0 0,0 -10.65,0 -12.38,0 -1.42,0 -2.03,0.95 -1.09,2.38 1.31,2 6.19,5.85 13.47,5.85 7.28,0 12.16,-3.85 13.47,-5.85 0.94,-1.43 0.33,-2.38 -1.09,-2.38 z"
     id="XMLID_192_" />
  <path
     inkscape:connector-curvature="0"
     style="fill:#7a4c32"
     d="m 69.98,89.99 c -2.11,0.6 -4.29,0.89 -5.98,0.89 -1.69,0 -3.87,-0.29 -5.98,-0.89 -0.9,-0.26 -1.25,0.6 -0.93,1.17 0.67,1.18 3.36,3.55 6.91,3.55 3.55,0 6.24,-2.37 6.91,-3.55 0.33,-0.57 -0.03,-1.42 -0.93,-1.17 z"
     id="XMLID_160_" />
  <path
     style="fill:#6a00b9;fill-opacity:0.87860084;stroke:none;stroke-width:0.99999994px;stroke-linecap:butt;stroke-linejoin:miter;stroke-opacity:1"
     d="M 44.669922 63.59375 L 44.669922 67.199219 L 35.855469 64.203125 L 35.9375 67.289062 C 29.402032 68.260384 22.494141 70.845703 22.494141 70.845703 C 22.037809 71.230395 21.625924 71.62001 21.236328 72.013672 C 21.230753 72.601748 21.220703 73.18434 21.220703 73.779297 C 21.220703 77.95359 21.601869 81.804039 22.28125 85.367188 C 25.843702 85.821628 32.725775 86.605469 37.972656 86.605469 C 46.681043 86.770068 56.242082 83.503906 63.400391 83.503906 L 66.277344 83.503906 C 73.435654 83.503906 82.998645 86.770068 91.707031 86.605469 C 96.172651 86.605469 101.80734 86.035978 105.63867 85.580078 C 106.37439 81.863793 106.7793 77.828236 106.7793 73.449219 C 106.7793 72.519006 106.76911 71.602316 106.75586 70.689453 C 105.87789 70.352812 100.28908 68.256364 94.628906 67.34375 L 94.710938 64.203125 L 85.898438 67.199219 L 85.898438 63.59375 L 73.091797 70.09375 C 69.538757 71.10182 66.454991 72.001952 64.839844 72.001953 C 63.622534 72.001954 60.810096 71.103084 57.451172 70.099609 L 57.484375 70.097656 L 44.669922 63.59375 z "
     id="path867" />
  <path
     style="fill:#272727;fill-opacity:1"
     d="M 41.425781 71.146484 C 39.665091 72.324692 38.470703 74.585978 38.470703 77.189453 C 38.470703 80.999453 41.039219 84.089844 44.199219 84.089844 C 47.359219 84.089844 49.910156 80.999453 49.910156 77.189453 C 49.910156 76.045959 49.678395 74.97085 49.273438 74.021484 L 41.425781 71.146484 z "
     id="XMLID_196_" />
  <path
     style="fill:#272727;fill-opacity:1"
     d="M 86.570312 71.148438 L 78.716797 74.025391 C 78.311646 74.973787 78.080078 76.047559 78.080078 77.189453 C 78.080078 80.999453 80.640781 84.089844 83.800781 84.089844 C 86.950781 84.089844 89.519531 80.999453 89.519531 77.189453 C 89.519531 74.587156 88.326532 72.327094 86.570312 71.148438 z "
     id="XMLID_195_" />
  <path
     inkscape:connector-curvature="0"
     d="M 65.554603,1.1642931 C 41.02836,1.2452676 38.481246,12.682907 37.823927,12.551323 30.757739,11.114026 21.062273,16.488704 15.74209,25.790642 c -13.7420896,24.039284 3.070916,43.007545 3.420117,45.123001 1.838443,10.921427 2.742257,12.824326 2.742257,12.824326 0,0 0.544342,-15.020757 8.853275,-24.79842 5.309912,-6.245153 10.393869,-19.990562 10.393869,-19.990562 0,0 14.923212,5.384799 26.272248,11.974094 9.603031,5.566992 15.590803,12.824325 15.590803,12.824325 0,0 1.797359,-5.566992 0.390283,-11.387029 C 80.364839,39.859949 68.461189,34.222105 68.461189,34.222105 c 0,0 5.94669,1.680219 14.039939,8.897065 17.850332,15.941841 22.595352,44.920565 22.595352,44.920565 6.12129,-5.607479 16.30975,-19.231427 15.067,-39.475034 C 119.53697,38.46314 109.97503,1.0124661 65.554603,1.1642931 Z"
     style="fill:#47352d;fill-opacity:1;stroke-width:1.01959407"
     id="path52" />
</svg>

<svg xmlns="http://www.w3.org/2000/svg" width="128" height="128"><path d="M64.17 14.87c-33.11 0-42.95 23.36-42.95 58.91 0 35.56 26.86 48.36 42.95 48.36 16.09 0 42.61-13.14 42.61-48.69 0-35.56-9.5-58.58-42.61-58.58z" fill="#9b643c"/><path d="M76.38 100.52H64 51.62c-1.42 0-2.03.95-1.09 2.38 1.31 2 6.19 5.85 13.47 5.85s12.16-3.85 13.47-5.85c.94-1.43.33-2.38-1.09-2.38z" fill="#513f35"/><path d="M69.98 89.99c-2.11.6-4.29.89-5.98.89-1.69 0-3.87-.29-5.98-.89-.9-.26-1.25.6-.93 1.17.67 1.18 3.36 3.55 6.91 3.55 3.55 0 6.24-2.37 6.91-3.55.33-.57-.03-1.42-.93-1.17z" fill="#7a4c32"/><path d="M44.67 63.594v3.605l-8.815-2.996.083 3.086c-6.536.971-13.444 3.557-13.444 3.557-.456.384-.868.774-1.258 1.168-.005.588-.015 1.17-.015 1.765 0 4.175.38 8.025 1.06 11.588 3.563.455 10.445 1.238 15.692 1.238 8.708.165 18.27-3.101 25.427-3.101h2.877c7.159 0 16.722 3.266 25.43 3.101 4.466 0 10.1-.569 13.932-1.025.735-3.716 1.14-7.752 1.14-12.13 0-.931-.01-1.848-.023-2.76-.878-.337-6.467-2.434-12.127-3.346l.082-3.14-8.813 2.995v-3.605l-12.806 6.5c-3.553 1.008-6.637 1.908-8.252 1.908-1.217 0-4.03-.899-7.389-1.902l.033-.002-12.814-6.504z" fill="#6a00b9" fill-opacity=".879"/><path d="M41.426 71.146c-1.76 1.179-2.955 3.44-2.955 6.043 0 3.81 2.568 6.9 5.728 6.9 3.16 0 5.711-3.09 5.711-6.9a8.073 8.073 0 0 0-.637-3.168l-7.847-2.875zM86.57 71.148l-7.853 2.877a8.052 8.052 0 0 0-.637 3.164c0 3.81 2.56 6.9 5.72 6.9 3.15 0 5.72-3.09 5.72-6.9 0-2.602-1.193-4.862-2.95-6.04z" fill="#272727"/><path d="M65.555 1.164c-24.527.081-27.074 11.519-27.731 11.387-7.066-1.437-16.762 3.938-22.082 13.24C2 49.83 18.813 68.798 19.162 70.914c1.839 10.921 2.742 12.824 2.742 12.824s.545-15.02 8.854-24.798c5.31-6.246 10.394-19.991 10.394-19.991s14.923 5.385 26.272 11.974c9.603 5.567 15.59 12.824 15.59 12.824s1.798-5.567.39-11.387c-3.04-12.5-14.943-18.138-14.943-18.138s5.947 1.68 14.04 8.897c17.85 15.942 22.595 44.92 22.595 44.92 6.122-5.607 16.31-19.23 15.067-39.474-.626-10.102-10.188-47.553-54.608-47.4z" fill="#47352d" stroke-width="1.02"/></svg>
